rospo-icon-theme-classic-common/48x48/apps/com.github.mirkobrombin.bottles.svg

<svg height="48" viewBox="0 0 48 48" width="48" xmlns="http://www.w3.org/2000/svg"><g transform="translate(0 -1004.3622)"><path d="m34.000008 1012.3794c-.450501-.011-1.737454-.074-2.000007 0 0 0 .05129 1.6488 0 2.9828-.18479 4.7221-.575008 6.9539-2.199219 10.5157-.85948 1.8848-1.359018 3.6396-1.636719 5.7516-.122067.9283-.163938 3.164-.164062 8.7338-.000121 6.9206.0157 7.5138.214844 7.8868.279147.5228.676142.7226 1.796875.9017.619091.099 2.53907.1674 3.988281.1912 1.449211-.024 3.36919-.092 3.988281-.1912 1.120733-.1791 1.517728-.3789 1.796875-.9017.199143-.373.214965-.9662.214844-7.8868-.000124-5.5698-.042-7.8055-.164062-8.7338-.277702-2.112-.777239-3.8668-1.636719-5.7516-1.624211-3.5618-2.014429-5.7936-2.199219-10.5157.09766-1.9866 0-2.9852 0-2.9852-.262553-.072-1.549506-.01-2.000007 0z" opacity=".2"/><path d="m14.000007 1012.3794c-.450501-.011-1.737454-.074-2.000007 0 0 0 .05129 1.6488 0 2.9828-.18479 4.7221-.575008 6.9539-2.199219 10.5157-.85948 1.8848-1.359018 3.6396-1.636719 5.7516-.122067.9283-.163938 3.164-.164062 8.7338-.000121 6.9206.0157 7.5138.214844 7.8868.279147.5228.676142.7226 1.796875.9017.619091.099 2.53907.1674 3.988281.1912 1.449211-.024 3.36919-.092 3.988281-.1912 1.120733-.1791 1.517728-.3789 1.796875-.9017.199143-.373.214965-.9662.214844-7.8868-.000124-5.5698-.042-7.8055-.164062-8.7338-.277702-2.112-.777239-3.8668-1.636719-5.7516-1.624211-3.5618-2.014429-5.7936-2.199219-10.5157.09766-1.9866 0-2.9852 0-2.9852-.262553-.072-1.549506-.01-2.000007 0z" opacity=".2"/><path d="m14.000007 1011.3794c-.450501-.011-1.737454-.074-2.000007 0 0 0 .05129 1.6488 0 2.9828-.18479 4.7221-.575008 6.9539-2.199219 10.5157-.85948 1.8848-1.359018 3.6396-1.636719 5.7516-.122067.9283-.163938 3.164-.164062 8.7338-.000121 6.9206.0157 7.5138.214844 7.8868.279147.5228.676142.7226 1.796875.9017.619091.099 2.53907.1674 3.988281.1912 1.449211-.024 3.36919-.092 3.988281-.1912 1.120733-.1791 1.517728-.3789 1.796875-.9017.199143-.373.214965-.9662.214844-7.8868-.000124-5.5698-.042-7.8055-.164062-8.7338-.277702-2.112-.777239-3.8668-1.636719-5.7516-1.624211-3.5618-2.014429-5.7936-2.199219-10.5157.09766-1.9866 0-2.9852 0-2.9852-.262553-.072-1.549506-.01-2.000007 0z" fill="#334933"/><path d="m12.929688 6.984375c-.41087-.007875-.798411-.0037969-.929688.0332031 0 0 .013152.4165756.019531 1 .280864-.0703999 1.534694-.0108846 1.980469 0v-.0019531c.450501-.01 1.737447-.072 2 0 0 0 .014567.2757009.025391.4960938.000113-.8868096-.025391-1.4960938-.025391-1.4960938-.262553-.072-1.549499-.01-2 0v .0019531c-.22525-.0055-.659443-.0253281-1.070312-.0332031zm-.916016 1.6914062c-.000034.4408193.003374.8808577-.013672 1.3242188-.18479 4.7221-.575008 6.953825-2.1992188 10.515625-.8594799 1.8848-1.3590177 3.639953-1.6367187 5.751953-.122067.9283-.1639385 3.164575-.1640625 8.734375-.0000051.291525.0018891.269537.0019531.539063.0032038-5.120267.0446487-7.380168.1621094-8.273438.277701-2.112.7772388-3.867153 1.6367187-5.751953 1.6242108-3.5618 2.0144288-5.793525 2.1992188-10.515625.034244-.89064.025086-1.7373092.013672-2.3242188zm4 1.5351568c-.006682.28872.003542.438889-.013672.789062.18479 4.7221.575008 6.953825 2.199219 10.515625.85948 1.8848 1.359016 3.639953 1.636719 5.751953.117455.89327.158905 3.153171.162109 8.273438.000064-.269526.001958-.247538.001953-.539063-.000124-5.5698-.042001-7.806075-.164062-8.734375-.277703-2.112-.777239-3.867153-1.636719-5.751953-1.596883-3.50187-1.996783-5.743369-2.185547-10.304687z" fill="#fff" opacity=".1" transform="translate(0 1004.3622)"/><path d="m34.000008 1011.3794c-.450501-.011-1.737454-.074-2.000007 0 0 0 .05129 1.6488 0 2.9828-.18479 4.7221-.575008 6.9539-2.199219 10.5157-.85948 1.8848-1.359018 3.6396-1.636719 5.7516-.122067.9283-.163938 3.164-.164062 8.7338-.000121 6.9206.0157 7.5138.214844 7.8868.279147.5228.676142.7226 1.796875.9017.619091.099 2.53907.1674 3.988281.1912 1.449211-.024 3.36919-.092 3.988281-.1912 1.120733-.1791 1.517728-.3789 1.796875-.9017.199143-.373.214965-.9662.214844-7.8868-.000124-5.5698-.042-7.8055-.164062-8.7338-.277702-2.112-.777239-3.8668-1.636719-5.7516-1.624211-3.5618-2.014429-5.7936-2.199219-10.5157.09766-1.9866 0-2.9852 0-2.9852-.262553-.072-1.549506-.01-2.000007 0z" fill="#334933"/><path d="m32.929688 6.984375c-.41087-.007875-.798412-.0037969-.929688.0332031 0 0 .013152.4165756.019531 1 .280864-.0703999 1.534694-.0108846 1.980469 0v-.0019531c.450501-.01 1.737447-.072 2 0 0 0 .014567.2757009.025391.4960938.000113-.8868096-.025391-1.4960938-.025391-1.4960938-.262553-.072-1.549499-.01-2 0v .0019531c-.225251-.0055-.659443-.0253281-1.070312-.0332031zm-.916016 1.6914062c-.000034.4408193.003374.8808577-.013672 1.3242188-.18479 4.7221-.575008 6.953825-2.199219 10.515625-.85948 1.8848-1.359017 3.639953-1.636719 5.751953-.122067.9283-.163938 3.164575-.164062 8.734375-.000005.291525.001889.269537.001953.539063.003204-5.120267.044649-7.380168.162109-8.273438.277702-2.112.777239-3.867153 1.636719-5.751953 1.624211-3.5618 2.014429-5.793525 2.199219-10.515625.034244-.89064.025086-1.7373092.013672-2.3242188zm4 1.5351568c-.006682.28872.003542.438889-.013672.789062.18479 4.7221.575008 6.953825 2.199219 10.515625.85948 1.8848 1.359017 3.639953 1.636719 5.751953.117455.89327.158905 3.153171.162109 8.273438.000064-.269526.001958-.247538.001953-.539063-.000124-5.5698-.042001-7.806075-.164062-8.734375-.277702-2.112-.777239-3.867153-1.636719-5.751953-1.596883-3.50187-1.996783-5.743369-2.185547-10.304687z" fill="#fff" opacity=".1" transform="translate(0 1004.3622)"/><path d="m24.000007 1010.3989c-.450501-.011-1.737454-.074-2.000007 0 0 0 .05129 3.6485 0 4.9825-.18479 4.7221-.575008 6.9539-2.199219 10.5157-.85948 1.8848-1.359018 3.6396-1.636719 5.7516-.122067.9283-.163938 3.164-.164062 8.7338-.000121 6.9206.0157 7.5138.214844 7.8868.279147.5228.676142.7226 1.796875.9017.619091.099 2.53907.1674 3.988281.1912 1.449211-.024 3.36919-.092 3.988281-.1912 1.120733-.1791 1.517728-.3789 1.796875-.9017.199143-.373.214965-.9662.214844-7.8868-.000124-5.5698-.042-7.8055-.164062-8.7338-.277702-2.112-.777239-3.8668-1.636719-5.7516-1.624211-3.5618-2.014429-5.7936-2.199219-10.5157.09766-1.9866 0-4.9849 0-4.9849-.262553-.072-1.549506-.01-2.000007 0z" opacity=".2"/><path d="m24.000007 1009.3989c-.450501-.011-1.737454-.074-2.000007 0 0 0 .05129 3.6485 0 4.9825-.18479 4.7221-.575008 6.9539-2.199219 10.5157-.85948 1.8848-1.359018 3.6396-1.636719 5.7516-.122067.9283-.163938 3.164-.164062 8.7338-.000121 6.9206.0157 7.5138.214844 7.8868.279147.5228.676142.7226 1.796875.9017.619091.099 2.53907.1674 3.988281.1912 1.449211-.024 3.36919-.092 3.988281-.1912 1.120733-.1791 1.517728-.3789 1.796875-.9017.199143-.373.214965-.9662.214844-7.8868-.000124-5.5698-.042-7.8055-.164062-8.7338-.277702-2.112-.777239-3.8668-1.636719-5.7516-1.624211-3.5618-2.014429-5.7936-2.199219-10.5157.09766-1.9866 0-4.9849 0-4.9849-.262553-.072-1.549506-.01-2.000007 0z" fill="#962b57"/><path d="m22.929688 5.0039062c-.41087-.0078749-.798412-.0037968-.929688.0332032 0 0 .005731.6340013.009766 1 .271815-.0721873 1.542096-.0109423 1.990234 0v-.0019532c.450501-.0099999 1.737447-.072 2 0 0 0 .0328 1.1347218.039062 2.453125.016492-1.7104227-.039062-3.453125-.039062-3.453125-.262553-.072-1.549499-.0099999-2 0v .0019532c-.225251-.0055-.659443-.0253282-1.070312-.0332032zm-.914063 2.6230469c.002454.892182.004881 1.8592394-.015625 2.3925779-.18479 4.7221-.575008 6.953825-2.199219 10.515625-.85948 1.8848-1.359017 3.639953-1.636719 5.751953-.122067.9283-.163938 3.162622-.164062 8.732422-.000005.291436.001889.269612.001953.539063.003204-5.120266.044649-7.378214.162109-8.271485.277702-2.112.777239-3.867153 1.636719-5.751953 1.624211-3.5618 2.014429-5.793525 2.199219-10.515625.030804-.801185.02549-2.2134838.015625-3.3925779zm4.001953 2.6835939c-.006397.236757-.006874.491253-.017578.708984.18479 4.7221.575008 6.953825 2.199219 10.515625.85948 1.8848 1.359016 3.639953 1.636719 5.751953.117455.893271.158905 3.151219.162109 8.271485.000064-.269451.001958-.247627.001953-.539063-.000124-5.5698-.042001-7.804122-.164062-8.732422-.277703-2.112-.777239-3.867153-1.636719-5.751953-1.586518-3.479141-1.991285-5.722987-2.181641-10.224609z" fill="#fff" opacity=".1" transform="translate(0 1004.3622)"/><path d="m22.666016 1009.3622c-.369334 0-.666016.446-.666016 1v1h4v-1c0-.554-.296682-1-.666016-1z" opacity=".2"/><path d="m22.666016 4c-.369334 0-.666016.446-.666016 1v1h4v-1c0-.554-.296682-1-.666016-1z" fill="#ffcb46" transform="translate(0 1004.3622)"/><path d="m12.666016 1011.3622c-.369334 0-.666016.446-.666016 1v1h4v-1c0-.554-.296682-1-.666016-1z" opacity=".2"/><path d="m12.666016 1010.3622c-.369334 0-.666016.446-.666016 1v1h4v-1c0-.554-.296682-1-.666016-1z" fill="#d6aa38"/><path d="m32.666016 1011.3622c-.369334 0-.666016.446-.666016 1v1h4v-1c0-.554-.296682-1-.666016-1z" opacity=".2"/><path d="m32.666016 1010.3622c-.369334 0-.666016.446-.666016 1v1h4v-1c0-.554-.296682-1-.666016-1z" fill="#d6aa38"/><g fill="#fff" transform="translate(0 1004.3622)"><path d="m22.666016 4c-.369334 0-.666016.446-.666016 1v1c0-.554.296682-1 .666016-1h2.667968c.369334 0 .666016.446.666016 1v-1c0-.554-.296682-1-.666016-1z" opacity=".2"/><path d="m12.666016 6c-.369334 0-.666016.446-.666016 1v1c0-.554.296682-1 .666016-1h2.667968c.369334 0 .666016.446.666016 1v-1c0-.554-.296682-1-.666016-1z" opacity=".2"/><path d="m32.666016 6c-.369334 0-.666016.446-.666016 1v1c0-.554.296682-1 .666016-1h2.667968c.369334 0 .666016.446.666016 1v-1c0-.554-.296682-1-.666016-1z" opacity=".2"/></g></g></svg>

<svg xmlns="http://www.w3.org/2000/svg" width="48" height="48" version="1.1" viewBox="0 0 48 48">
 <g transform="translate(0,-1004.3622)">
  <path d="m 34.000008,1012.3794 c -0.450501,-0.011 -1.737454,-0.074 -2.000007,0 0,0 0.05129,1.6488 0,2.9828 -0.18479,4.7221 -0.575008,6.9539 -2.199219,10.5157 -0.85948,1.8848 -1.359018,3.6396 -1.636719,5.7516 -0.122067,0.9283 -0.163938,3.164 -0.164062,8.7338 -1.21e-4,6.9206 0.0157,7.5138 0.214844,7.8868 0.279147,0.5228 0.676142,0.7226 1.796875,0.9017 0.619091,0.099 2.53907,0.1674 3.988281,0.1912 1.449211,-0.024 3.36919,-0.092 3.988281,-0.1912 1.120733,-0.1791 1.517728,-0.3789 1.796875,-0.9017 0.199143,-0.373 0.214965,-0.9662 0.214844,-7.8868 -1.24e-4,-5.5698 -0.042,-7.8055 -0.164062,-8.7338 -0.277702,-2.112 -0.777239,-3.8668 -1.636719,-5.7516 -1.624211,-3.5618 -2.014429,-5.7936 -2.199219,-10.5157 0.09766,-1.9866 0,-2.9852 0,-2.9852 -0.262553,-0.072 -1.549506,-0.01 -2.000007,0 z" style="opacity:0.2"/>
  <path style="opacity:0.2" d="m 14.000007,1012.3794 c -0.450501,-0.011 -1.737454,-0.074 -2.000007,0 0,0 0.05129,1.6488 0,2.9828 -0.18479,4.7221 -0.575008,6.9539 -2.199219,10.5157 -0.85948,1.8848 -1.359018,3.6396 -1.636719,5.7516 -0.122067,0.9283 -0.163938,3.164 -0.164062,8.7338 -1.21e-4,6.9206 0.0157,7.5138 0.214844,7.8868 0.279147,0.5228 0.676142,0.7226 1.796875,0.9017 0.619091,0.099 2.53907,0.1674 3.988281,0.1912 1.449211,-0.024 3.36919,-0.092 3.988281,-0.1912 1.120733,-0.1791 1.517728,-0.3789 1.796875,-0.9017 0.199143,-0.373 0.214965,-0.9662 0.214844,-7.8868 -1.24e-4,-5.5698 -0.042,-7.8055 -0.164062,-8.7338 -0.277702,-2.112 -0.777239,-3.8668 -1.636719,-5.7516 -1.624211,-3.5618 -2.014429,-5.7936 -2.199219,-10.5157 0.09766,-1.9866 0,-2.9852 0,-2.9852 -0.262553,-0.072 -1.549506,-0.01 -2.000007,0 z"/>
  <path d="m 14.000007,1011.3794 c -0.450501,-0.011 -1.737454,-0.074 -2.000007,0 0,0 0.05129,1.6488 0,2.9828 -0.18479,4.7221 -0.575008,6.9539 -2.199219,10.5157 -0.85948,1.8848 -1.359018,3.6396 -1.636719,5.7516 -0.122067,0.9283 -0.163938,3.164 -0.164062,8.7338 -1.21e-4,6.9206 0.0157,7.5138 0.214844,7.8868 0.279147,0.5228 0.676142,0.7226 1.796875,0.9017 0.619091,0.099 2.53907,0.1674 3.988281,0.1912 1.449211,-0.024 3.36919,-0.092 3.988281,-0.1912 1.120733,-0.1791 1.517728,-0.3789 1.796875,-0.9017 0.199143,-0.373 0.214965,-0.9662 0.214844,-7.8868 -1.24e-4,-5.5698 -0.042,-7.8055 -0.164062,-8.7338 -0.277702,-2.112 -0.777239,-3.8668 -1.636719,-5.7516 -1.624211,-3.5618 -2.014429,-5.7936 -2.199219,-10.5157 0.09766,-1.9866 0,-2.9852 0,-2.9852 -0.262553,-0.072 -1.549506,-0.01 -2.000007,0 z" style="fill:#334933"/>
  <path style="fill:#ffffff;opacity:0.1" d="M 12.929688 6.984375 C 12.518818 6.9765 12.131277 6.9805781 12 7.0175781 C 12 7.0175781 12.013152 7.4341537 12.019531 8.0175781 C 12.300395 7.9471782 13.554225 8.0066935 14 8.0175781 L 14 8.015625 C 14.450501 8.005625 15.737447 7.943625 16 8.015625 C 16 8.015625 16.014567 8.2913259 16.025391 8.5117188 C 16.025504 7.6249092 16 7.015625 16 7.015625 C 15.737447 6.943625 14.450501 7.005625 14 7.015625 L 14 7.0175781 C 13.77475 7.0120781 13.340557 6.99225 12.929688 6.984375 z M 12.013672 8.6757812 C 12.013638 9.1166005 12.017046 9.5566389 12 10 C 11.81521 14.7221 11.424992 16.953825 9.8007812 20.515625 C 8.9413013 22.400425 8.4417635 24.155578 8.1640625 26.267578 C 8.0419955 27.195878 8.000124 29.432153 8 35.001953 C 7.9999949 35.293478 8.0018891 35.27149 8.0019531 35.541016 C 8.0051569 30.420749 8.0466018 28.160848 8.1640625 27.267578 C 8.4417635 25.155578 8.9413013 23.400425 9.8007812 21.515625 C 11.424992 17.953825 11.81521 15.7221 12 11 C 12.034244 10.10936 12.025086 9.2626908 12.013672 8.6757812 z M 16.013672 10.210938 C 16.00699 10.499658 16.017214 10.649827 16 11 C 16.18479 15.7221 16.575008 17.953825 18.199219 21.515625 C 19.058699 23.400425 19.558235 25.155578 19.835938 27.267578 C 19.953393 28.160848 19.994843 30.420749 19.998047 35.541016 C 19.998111 35.27149 20.000005 35.293478 20 35.001953 C 19.999876 29.432153 19.957999 27.195878 19.835938 26.267578 C 19.558235 24.155578 19.058699 22.400425 18.199219 20.515625 C 16.602336 17.013755 16.202436 14.772256 16.013672 10.210938 z" transform="translate(0,1004.3622)"/>
  <path style="fill:#334933" d="m 34.000008,1011.3794 c -0.450501,-0.011 -1.737454,-0.074 -2.000007,0 0,0 0.05129,1.6488 0,2.9828 -0.18479,4.7221 -0.575008,6.9539 -2.199219,10.5157 -0.85948,1.8848 -1.359018,3.6396 -1.636719,5.7516 -0.122067,0.9283 -0.163938,3.164 -0.164062,8.7338 -1.21e-4,6.9206 0.0157,7.5138 0.214844,7.8868 0.279147,0.5228 0.676142,0.7226 1.796875,0.9017 0.619091,0.099 2.53907,0.1674 3.988281,0.1912 1.449211,-0.024 3.36919,-0.092 3.988281,-0.1912 1.120733,-0.1791 1.517728,-0.3789 1.796875,-0.9017 0.199143,-0.373 0.214965,-0.9662 0.214844,-7.8868 -1.24e-4,-5.5698 -0.042,-7.8055 -0.164062,-8.7338 -0.277702,-2.112 -0.777239,-3.8668 -1.636719,-5.7516 -1.624211,-3.5618 -2.014429,-5.7936 -2.199219,-10.5157 0.09766,-1.9866 0,-2.9852 0,-2.9852 -0.262553,-0.072 -1.549506,-0.01 -2.000007,0 z"/>
  <path style="fill:#ffffff;opacity:0.1" d="M 32.929688 6.984375 C 32.518818 6.9765 32.131276 6.9805781 32 7.0175781 C 32 7.0175781 32.013152 7.4341537 32.019531 8.0175781 C 32.300395 7.9471782 33.554225 8.0066935 34 8.0175781 L 34 8.015625 C 34.450501 8.005625 35.737447 7.943625 36 8.015625 C 36 8.015625 36.014567 8.2913259 36.025391 8.5117188 C 36.025504 7.6249092 36 7.015625 36 7.015625 C 35.737447 6.943625 34.450501 7.005625 34 7.015625 L 34 7.0175781 C 33.774749 7.0120781 33.340557 6.99225 32.929688 6.984375 z M 32.013672 8.6757812 C 32.013638 9.1166005 32.017046 9.5566389 32 10 C 31.81521 14.7221 31.424992 16.953825 29.800781 20.515625 C 28.941301 22.400425 28.441764 24.155578 28.164062 26.267578 C 28.041995 27.195878 28.000124 29.432153 28 35.001953 C 27.999995 35.293478 28.001889 35.27149 28.001953 35.541016 C 28.005157 30.420749 28.046602 28.160848 28.164062 27.267578 C 28.441764 25.155578 28.941301 23.400425 29.800781 21.515625 C 31.424992 17.953825 31.81521 15.7221 32 11 C 32.034244 10.10936 32.025086 9.2626908 32.013672 8.6757812 z M 36.013672 10.210938 C 36.00699 10.499658 36.017214 10.649827 36 11 C 36.18479 15.7221 36.575008 17.953825 38.199219 21.515625 C 39.058699 23.400425 39.558236 25.155578 39.835938 27.267578 C 39.953393 28.160848 39.994843 30.420749 39.998047 35.541016 C 39.998111 35.27149 40.000005 35.293478 40 35.001953 C 39.999876 29.432153 39.957999 27.195878 39.835938 26.267578 C 39.558236 24.155578 39.058699 22.400425 38.199219 20.515625 C 36.602336 17.013755 36.202436 14.772256 36.013672 10.210938 z" transform="translate(0,1004.3622)"/>
  <path d="m 24.000007,1010.3989 c -0.450501,-0.011 -1.737454,-0.074 -2.000007,0 0,0 0.05129,3.6485 0,4.9825 -0.18479,4.7221 -0.575008,6.9539 -2.199219,10.5157 -0.85948,1.8848 -1.359018,3.6396 -1.636719,5.7516 -0.122067,0.9283 -0.163938,3.164 -0.164062,8.7338 -1.21e-4,6.9206 0.0157,7.5138 0.214844,7.8868 0.279147,0.5228 0.676142,0.7226 1.796875,0.9017 0.619091,0.099 2.53907,0.1674 3.988281,0.1912 1.449211,-0.024 3.36919,-0.092 3.988281,-0.1912 1.120733,-0.1791 1.517728,-0.3789 1.796875,-0.9017 0.199143,-0.373 0.214965,-0.9662 0.214844,-7.8868 -1.24e-4,-5.5698 -0.042,-7.8055 -0.164062,-8.7338 -0.277702,-2.112 -0.777239,-3.8668 -1.636719,-5.7516 -1.624211,-3.5618 -2.014429,-5.7936 -2.199219,-10.5157 0.09766,-1.9866 0,-4.9849 0,-4.9849 -0.262553,-0.072 -1.549506,-0.01 -2.000007,0 z" style="opacity:0.2"/>
  <path style="fill:#962b57" d="m 24.000007,1009.3989 c -0.450501,-0.011 -1.737454,-0.074 -2.000007,0 0,0 0.05129,3.6485 0,4.9825 -0.18479,4.7221 -0.575008,6.9539 -2.199219,10.5157 -0.85948,1.8848 -1.359018,3.6396 -1.636719,5.7516 -0.122067,0.9283 -0.163938,3.164 -0.164062,8.7338 -1.21e-4,6.9206 0.0157,7.5138 0.214844,7.8868 0.279147,0.5228 0.676142,0.7226 1.796875,0.9017 0.619091,0.099 2.53907,0.1674 3.988281,0.1912 1.449211,-0.024 3.36919,-0.092 3.988281,-0.1912 1.120733,-0.1791 1.517728,-0.3789 1.796875,-0.9017 0.199143,-0.373 0.214965,-0.9662 0.214844,-7.8868 -1.24e-4,-5.5698 -0.042,-7.8055 -0.164062,-8.7338 -0.277702,-2.112 -0.777239,-3.8668 -1.636719,-5.7516 -1.624211,-3.5618 -2.014429,-5.7936 -2.199219,-10.5157 0.09766,-1.9866 0,-4.9849 0,-4.9849 -0.262553,-0.072 -1.549506,-0.01 -2.000007,0 z"/>
  <path style="fill:#ffffff;opacity:0.1" d="M 22.929688 5.0039062 C 22.518818 4.9960313 22.131276 5.0001094 22 5.0371094 C 22 5.0371094 22.005731 5.6711107 22.009766 6.0371094 C 22.281581 5.9649221 23.551862 6.0261671 24 6.0371094 L 24 6.0351562 C 24.450501 6.0251563 25.737447 5.9631562 26 6.0351562 C 26 6.0351562 26.0328 7.169878 26.039062 8.4882812 C 26.055554 6.7778585 26 5.0351562 26 5.0351562 C 25.737447 4.9631562 24.450501 5.0251563 24 5.0351562 L 24 5.0371094 C 23.774749 5.0316094 23.340557 5.0117812 22.929688 5.0039062 z M 22.015625 7.6269531 C 22.018079 8.5191351 22.020506 9.4861925 22 10.019531 C 21.81521 14.741631 21.424992 16.973356 19.800781 20.535156 C 18.941301 22.419956 18.441764 24.175109 18.164062 26.287109 C 18.041995 27.215409 18.000124 29.449731 18 35.019531 C 17.999995 35.310967 18.001889 35.289143 18.001953 35.558594 C 18.005157 30.438328 18.046602 28.18038 18.164062 27.287109 C 18.441764 25.175109 18.941301 23.419956 19.800781 21.535156 C 21.424992 17.973356 21.81521 15.741631 22 11.019531 C 22.030804 10.218346 22.02549 8.8060472 22.015625 7.6269531 z M 26.017578 10.310547 C 26.011181 10.547304 26.010704 10.8018 26 11.019531 C 26.18479 15.741631 26.575008 17.973356 28.199219 21.535156 C 29.058699 23.419956 29.558235 25.175109 29.835938 27.287109 C 29.953393 28.18038 29.994843 30.438328 29.998047 35.558594 C 29.998111 35.289143 30.000005 35.310967 30 35.019531 C 29.999876 29.449731 29.957999 27.215409 29.835938 26.287109 C 29.558235 24.175109 29.058699 22.419956 28.199219 20.535156 C 26.612701 17.056015 26.207934 14.812169 26.017578 10.310547 z" transform="translate(0,1004.3622)"/>
  <path d="m 22.666016,1009.3622 c -0.369334,0 -0.666016,0.446 -0.666016,1 l 0,1 4,0 0,-1 c 0,-0.554 -0.296682,-1 -0.666016,-1 l -2.667968,0 z" style="opacity:0.2"/>
  <path style="fill:#ffcb46" d="M 22.666016 4 C 22.296682 4 22 4.446 22 5 L 22 6 L 26 6 L 26 5 C 26 4.446 25.703318 4 25.333984 4 L 22.666016 4 z" transform="translate(0,1004.3622)"/>
  <path style="opacity:0.2" d="m 12.666016,1011.3622 c -0.369334,0 -0.666016,0.446 -0.666016,1 l 0,1 4,0 0,-1 c 0,-0.554 -0.296682,-1 -0.666016,-1 l -2.667968,0 z"/>
  <path d="m 12.666016,1010.3622 c -0.369334,0 -0.666016,0.446 -0.666016,1 l 0,1 4,0 0,-1 c 0,-0.554 -0.296682,-1 -0.666016,-1 l -2.667968,0 z" style="fill:#d6aa38"/>
  <path d="m 32.666016,1011.3622 c -0.369334,0 -0.666016,0.446 -0.666016,1 l 0,1 4,0 0,-1 c 0,-0.554 -0.296682,-1 -0.666016,-1 l -2.667968,0 z" style="opacity:0.2"/>
  <path style="fill:#d6aa38" d="m 32.666016,1010.3622 c -0.369334,0 -0.666016,0.446 -0.666016,1 l 0,1 4,0 0,-1 c 0,-0.554 -0.296682,-1 -0.666016,-1 l -2.667968,0 z"/>
  <path style="opacity:0.2;fill:#ffffff" d="M 22.666016 4 C 22.296682 4 22 4.446 22 5 L 22 6 C 22 5.446 22.296682 5 22.666016 5 L 25.333984 5 C 25.703318 5 26 5.446 26 6 L 26 5 C 26 4.446 25.703318 4 25.333984 4 L 22.666016 4 z" transform="translate(0,1004.3622)"/>
  <path style="opacity:0.2;fill:#ffffff" d="M 12.666016 6 C 12.296682 6 12 6.446 12 7 L 12 8 C 12 7.446 12.296682 7 12.666016 7 L 15.333984 7 C 15.703318 7 16 7.446 16 8 L 16 7 C 16 6.446 15.703318 6 15.333984 6 L 12.666016 6 z" transform="translate(0,1004.3622)"/>
  <path style="opacity:0.2;fill:#ffffff" d="M 32.666016 6 C 32.296682 6 32 6.446 32 7 L 32 8 C 32 7.446 32.296682 7 32.666016 7 L 35.333984 7 C 35.703318 7 36 7.446 36 8 L 36 7 C 36 6.446 35.703318 6 35.333984 6 L 32.666016 6 z" transform="translate(0,1004.3622)"/>
 </g>
</svg>
